X:162
T: SCHLUPPT ALLE DURCH
N: K2295
O: Europa, Mitteleuropa, Deutschland, Darmstadt
R: Kinder - Lied, Reigen, Tanz - Spiel
M: 2/4
L: 1/8
K: D
D | AAFD | AAF
D | dcBA | A2F
D | AAFD | AAF
D | dcBA | A2F
D | A2FD | A2F
D | AAFD | AAF
D | dcBA | A2F

